assets/img/devfest-logo.svg

<svg clip-rule="evenodd" fill-rule="evenodd" stroke-miterlimit="10" viewBox="0 0 1083 146" xmlns="http://www.w3.org/2000/svg"><path d="m315.242 153.91h14.134v34.873h-14.134z" fill="#fad2cf" transform="matrix(4.166678704 0 0 4.16666989556 -790.81245704 -641.290973202)"/><path d="m426.518 153.91h14.135v34.873h-14.135z" fill="#aecbfa" transform="matrix(4.166678704 0 0 4.16666989556 -790.81245704 -641.290973202)"/><path d="m189.795 153.91h14.135v34.873h-14.135z" fill="#a8dab5" transform="matrix(4.166678704 0 0 4.16666989556 -790.81245704 -641.290973202)"/><path d="m-23.672 11.201h34.873c0 6.887-5.583 12.471-12.47 12.471h-9.933c-6.887 0-12.47-5.584-12.47-12.471" fill="#fbbc04" fill-rule="nonzero" transform="matrix(0 -4.16666989556 -4.166678704 0 265.8275456 46.672514024)"/><path d="m242.392 153.91h15.804v34.873h-15.804z" fill="#fde293" transform="matrix(4.166678704 0 0 4.16666989556 -790.81245704 -641.290973202)"/><path d="m0-34.873 20.134 34.873v-34.873z" fill="#aecbfa" fill-rule="nonzero" transform="matrix(4.166678704 0 0 4.16666989556 320.659342 145.305843864)"/><path d="m0-34.873h-20.134v34.873z" fill="#4285f4" fill-rule="nonzero" transform="matrix(4.166678704 0 0 4.16666989556 488.437856 145.305843864)"/><path d="m0-34.873c9.63 0 17.437 7.807 17.437 17.437 0 9.629-7.807 17.436-17.437 17.436z" fill="#34a853" fill-rule="nonzero" transform="matrix(4.166678704 0 0 4.16666989556 58.8943568 145.305843864)"/><path d="m0 21.557c5.953 0 10.778-4.826 10.778-10.778 0-5.953-4.825-10.779-10.778-10.779h-7.067v8.25" fill="none" stroke="#0d652d" stroke-width=".12" transform="matrix(4.166678704 0 0 4.16666989556 58.8943568 27.742532554)"/><path d="m0 26.155c-7.223 0-13.078-5.855-13.078-13.077 0-7.223 5.855-13.078 13.078-13.078z" fill="#fbbc04" fill-rule="nonzero" transform="matrix(4.166678704 0 0 4.16666989556 876.382398 .000163608)"/><path d="m329.377 180.065h11.627v8.718h-11.627z" fill="#ea4335" transform="matrix(-4.166678704 0 0 4.16666989556 2002.448048 -750.269236292)"/><path d="m417.632 180.065h8.886v8.718h-8.886z" fill="#4285f4" transform="matrix(-4.166678704 0 0 4.16666989556 2726.48142 -750.269236292)"/><path d="m440.653 180.065h8.886v8.718h-8.886z" fill="#4285f4" transform="matrix(-4.166678704 0 0 4.16666989556 2918.3315 -750.269236292)"/><path d="m329.376 162.628h8.719v8.718h-8.719z" fill="#ea4335" transform="matrix(-4.166678704 0 0 4.16666989556 1990.316942 -604.961561832)"/><path d="m400.125 180.065h11.625v8.718h-11.625z" fill="#fbbc04" transform="matrix(-4.166678704 0 0 4.16666989556 2592.005752 -750.269236292)"/><path d="m0-26.155v17.437h-11.625v8.718h11.625c7.222 0 13.078-5.855 13.078-13.077 0-7.223-5.856-13.078-13.078-13.078" fill="#fde293" fill-rule="nonzero" transform="matrix(4.166678704 0 0 4.16666989556 876.382398 145.306840966)"/><path d="m0 14.95c-1.618-1.583-2.621-3.79-2.621-6.231 0-4.816 3.903-8.719 8.718-8.719h6.539" fill="none" stroke="#e37400" stroke-width=".12" transform="matrix(4.166678704 0 0 4.16666989556 850.97631 18.164370742)"/><path d="m0 0h23.021" fill="none" stroke="#174ea6" stroke-width=".12" transform="matrix(4.166678704 0 0 4.16666989556 967.842308 18.513356442)"/><path d="m-23.671 11.202h34.873c0 6.887-5.583 12.47-12.47 12.47h-9.933c-6.887 0-12.47-5.583-12.47-12.47" fill="#34a853" fill-rule="nonzero" transform="matrix(0 -4.16666989556 -4.166678704 0 763.309252 46.674508228)"/><path d="m361.787 153.91h15.804v34.873h-15.804z" fill="#a8dab5" transform="matrix(4.166678704 0 0 4.16666989556 -790.81245704 -641.290973202)"/><g fill="none" stroke-width=".12"><path d="m-2.251.008h2.251" stroke="#0d652d" transform="matrix(-4.166578364 -.02776480374 -.02776488072 4.16657018536 691.054418 50.615055332)"/><path d="m-15.48 0h15.48" stroke="#0d652d" transform="matrix(-4.166678704 0 0 4.16666989556 717.985674 50.7985221)"/><path d="m-4.622 0h4.622" stroke="#0d652d" transform="matrix(-4.166678704 0 0 4.16666989556 763.22898 94.507485372)"/><path d="m-3.514 0h3.514" stroke="#0d652d" transform="matrix(-4.166678704 0 0 4.16666989556 731.01984 94.507485372)"/><circle cx="-2.216" r="2.216" stroke="#174ea6" transform="matrix(0 -4.16666989556 -4.166678704 0 404.543582 76.505805864)"/><ellipse cx="2.217" rx="2.216" ry="2.217" stroke="#174ea6" transform="matrix(0 4.16666989556 4.166678704 0 436.853062 20.548441624)"/><path d="m-8.324-4.806h11.099" stroke="#174ea6" transform="matrix(-2.083198876 3.60852210902 3.60852742 2.0831953535 432.237422 77.830954422)"/><ellipse cx="-2.217" rx="2.216" ry="2.217" stroke="#174ea6" transform="matrix(0 -4.16666989556 -4.166678704 0 372.244136 20.548441624)"/><path d="m-2.775-4.806h11.099" stroke="#174ea6" transform="matrix(2.083198876 3.60852210902 3.60852742 -2.0831953535 399.978112 37.783349694)"/><path d="m-1.788.741h3.577v3.577h-3.577z" stroke="#0d652d" transform="matrix(-2.94628342 -2.94627687368 -2.94628342 2.94627687368 36.8988254 65.20166049)"/><path d="m-3.599-1.491h2.981v2.981h-2.981z" stroke="#0d652d" transform="matrix(-2.94628342 -2.94627687368 -2.94628342 2.94627687368 748.22815 88.297534116)"/><path d="m-3.599-1.491h2.981v2.981h-2.981z" stroke="#0d652d" transform="matrix(-2.94628342 -2.94627687368 -2.94628342 2.94627687368 703.17549 44.587573742)"/><circle cx="2.108" r="2.108" stroke="#174ea6" transform="matrix(0 4.16666989556 4.166678704 0 1015.794794 40.461565666)"/><circle cx="2.108" r="2.108" stroke="#174ea6" transform="matrix(0 4.16666989556 4.166678704 0 1015.794794 74.131706002)"/><circle cx="2.108" r="2.108" stroke="#174ea6" transform="matrix(0 4.16666989556 4.166678704 0 1015.794794 107.80284344)"/><path d="m0 17.437h4.122c4.815 0 8.718-3.903 8.718-8.718s-3.903-8.719-8.718-8.719" stroke="#e37400" transform="matrix(4.166678704 0 0 4.16666989556 859.20419 54.489793704)"/><path d="m0-8.982h-8.982v8.982" stroke="#a50e0e" transform="matrix(4.166678704 0 0 4.16666989556 589.570542 128.11381118)"/><path d="m0-12.862h-12.862v12.862" stroke="#a50e0e" transform="matrix(4.166678704 0 0 4.16666989556 605.735316 71.74264961)"/><path d="m-15.867 0h15.867" stroke="#e37400" transform="matrix(-4.166678704 0 0 4.16666989556 218.8935106 50.7985221)"/><path d="m-15.867 0h15.867" stroke="#e37400" transform="matrix(-4.166678704 0 0 4.16666989556 218.8935106 72.653003736)"/><path d="m-15.867 0h15.867" stroke="#e37400" transform="matrix(-4.166678704 0 0 4.16666989556 218.8935106 94.507485372)"/></g></svg>

<?xml version="1.0" encoding="UTF-8" standalone="no"?>
<!DOCTYPE svg PUBLIC "-//W3C//DTD SVG 1.1//EN" "http://www.w3.org/Graphics/SVG/1.1/DTD/svg11.dtd">
<svg width="100%" height="100%" viewBox="0 0 1500 475" version="1.1" xmlns="http://www.w3.org/2000/svg" xmlns:xlink="http://www.w3.org/1999/xlink" xml:space="preserve" xmlns:serif="http://www.serif.com/" style="fill-rule:evenodd;clip-rule:evenodd;stroke-miterlimit:10;">
    <g transform="matrix(6.0171,0,0,6.0171,-999.554,-692.672)">
        <rect x="286.563" y="117.897" width="13.418" height="33.107" style="fill:rgb(250,210,207);"/>
        <rect x="392.204" y="117.897" width="13.419" height="33.107" style="fill:rgb(174,203,250);"/>
        <rect x="167.468" y="117.897" width="13.419" height="33.107" style="fill:rgb(168,218,181);"/>
        <g transform="matrix(0,-0.949361,-0.949361,0,228.036,128.531)">
            <path d="M-23.672,11.201L11.201,11.201C11.201,18.088 5.618,23.672 -1.269,23.672L-11.202,23.672C-18.089,23.672 -23.672,18.088 -23.672,11.201" style="fill:rgb(251,188,4);fill-rule:nonzero;"/>
        </g>
        <rect x="217.402" y="117.897" width="15.004" height="33.107" style="fill:rgb(253,226,147);"/>
        <g transform="matrix(0.949361,0,0,0.949361,240.528,151.004)">
            <path d="M0,-34.873L20.134,0L20.134,-34.873L0,-34.873Z" style="fill:rgb(174,203,250);fill-rule:nonzero;"/>
        </g>
        <g transform="matrix(0.949361,0,0,0.949361,278.757,151.004)">
            <path d="M0,-34.873L-20.134,-34.873L-20.134,0L0,-34.873Z" style="fill:rgb(66,133,244);fill-rule:nonzero;"/>
        </g>
        <g transform="matrix(0.949361,0,0,0.949361,180.887,151.004)">
            <path d="M0,-34.873C9.63,-34.873 17.437,-27.066 17.437,-17.436C17.437,-7.807 9.63,0 0,0L0,-34.873Z" style="fill:rgb(52,168,83);fill-rule:nonzero;"/>
        </g>
        <g transform="matrix(0.949361,0,0,0.949361,180.887,124.218)">
            <path d="M0,21.557C5.953,21.557 10.778,16.731 10.778,10.779C10.778,4.826 5.953,0 0,0L-7.067,0L-7.067,8.25" style="fill:none;stroke:rgb(13,101,45);stroke-width:0.5px;"/>
        </g>
        <g transform="matrix(0.949361,0,0,0.949361,367.148,117.897)">
            <path d="M0,26.155C-7.223,26.155 -13.078,20.3 -13.078,13.078C-13.078,5.855 -7.223,0 0,0L0,26.155Z" style="fill:rgb(251,188,4);fill-rule:nonzero;"/>
        </g>
        <g transform="matrix(-0.949361,0,0,0.949361,623.718,-53.0496)">
            <rect x="329.377" y="180.065" width="11.627" height="8.718" style="fill:rgb(234,67,53);"/>
        </g>
        <g transform="matrix(-0.949361,0,0,0.949361,788.688,-53.0496)">
            <rect x="417.632" y="180.065" width="8.886" height="8.718" style="fill:rgb(66,133,244);"/>
        </g>
        <g transform="matrix(-0.949361,0,0,0.949361,832.398,-53.0496)">
            <rect x="440.653" y="180.065" width="8.886" height="8.718" style="fill:rgb(66,133,244);"/>
        </g>
        <g transform="matrix(-0.949361,0,0,0.949361,620.955,-19.9415)">
            <rect x="329.376" y="162.628" width="8.719" height="8.718" style="fill:rgb(234,67,53);"/>
        </g>
        <g transform="matrix(-0.949361,0,0,0.949361,758.047,-53.0496)">
            <rect x="400.125" y="180.065" width="11.625" height="8.718" style="fill:rgb(251,188,4);"/>
        </g>
        <g transform="matrix(0.949361,0,0,0.949361,367.148,151.004)">
            <path d="M0,-26.155L0,-8.718L-11.625,-8.718L-11.625,0L0,0C7.222,0 13.078,-5.855 13.078,-13.077C13.078,-20.3 7.222,-26.155 0,-26.155" style="fill:rgb(253,226,147);fill-rule:nonzero;"/>
        </g>
        <g transform="matrix(0.949361,0,0,0.949361,361.359,122.035)">
            <path d="M0,14.95C-1.618,13.367 -2.621,11.16 -2.621,8.719C-2.621,3.903 1.282,0 6.097,0L12.636,0" style="fill:none;stroke:rgb(227,116,0);stroke-width:0.5px;"/>
        </g>
        <g transform="matrix(0.949361,0,0,0.949361,387.986,122.115)">
            <path d="M0,0L23.021,0" style="fill:none;stroke:rgb(23,78,166);stroke-width:0.5px;"/>
        </g>
        <g transform="matrix(0,-0.949361,-0.949361,0,341.385,128.531)">
            <path d="M-23.671,11.202L11.202,11.202C11.202,18.089 5.619,23.672 -1.268,23.672L-11.201,23.672C-18.088,23.672 -23.671,18.089 -23.671,11.202" style="fill:rgb(52,168,83);fill-rule:nonzero;"/>
        </g>
        <rect x="330.751" y="117.897" width="15.004" height="33.107" style="fill:rgb(168,218,181);"/>
        <g transform="matrix(-0.94934,-0.00632613,-0.00632613,0.94934,324.922,129.429)">
            <path d="M-2.251,0.008L0,0.008" style="fill:none;stroke:rgb(13,101,45);stroke-width:0.5px;"/>
        </g>
        <g transform="matrix(-0.949361,0,0,0.949361,331.058,129.471)">
            <path d="M-15.48,0L0,0" style="fill:none;stroke:rgb(13,101,45);stroke-width:0.5px;"/>
        </g>
        <g transform="matrix(-0.949361,0,0,0.949361,341.366,139.431)">
            <path d="M-4.622,0L0,0" style="fill:none;stroke:rgb(13,101,45);stroke-width:0.5px;"/>
        </g>
        <g transform="matrix(-0.949361,0,0,0.949361,334.027,139.431)">
            <path d="M-3.514,0L0,0" style="fill:none;stroke:rgb(13,101,45);stroke-width:0.5px;"/>
        </g>
        <g transform="matrix(0,-0.949361,-0.949361,0,259.643,135.328)">
            <circle cx="-2.216" cy="0" r="2.216" style="fill:none;stroke:rgb(23,78,166);stroke-width:0.5px;"/>
        </g>
        <g transform="matrix(0,0.949361,0.949361,0,267.003,122.578)">
            <ellipse cx="2.217" cy="0" rx="2.216" ry="2.217" style="fill:none;stroke:rgb(23,78,166);stroke-width:0.5px;"/>
        </g>
        <g transform="matrix(-0.474649,0.82219,0.82219,0.474649,265.951,135.63)">
            <path d="M-8.324,-4.806L2.775,-4.806" style="fill:none;stroke:rgb(23,78,166);stroke-width:0.5px;"/>
        </g>
        <g transform="matrix(0,-0.949361,-0.949361,0,252.281,122.578)">
            <ellipse cx="-2.217" cy="0" rx="2.216" ry="2.217" style="fill:none;stroke:rgb(23,78,166);stroke-width:0.5px;"/>
        </g>
        <g transform="matrix(0.474649,0.82219,0.82219,-0.474649,258.602,126.506)">
            <path d="M-2.775,-4.806L8.324,-4.806" style="fill:none;stroke:rgb(23,78,166);stroke-width:0.5px;"/>
        </g>
        <g transform="matrix(-0.6713,-0.6713,-0.6713,0.6713,175.875,132.753)">
            <rect x="-1.788" y="0.741" width="3.577" height="3.577" style="fill:none;stroke:rgb(13,101,45);stroke-width:0.5px;"/>
        </g>
        <g transform="matrix(-0.6713,-0.6713,-0.6713,0.6713,337.95,138.015)">
            <rect x="-3.599" y="-1.491" width="2.981" height="2.981" style="fill:none;stroke:rgb(13,101,45);stroke-width:0.5px;"/>
        </g>
        <g transform="matrix(-0.6713,-0.6713,-0.6713,0.6713,327.684,128.056)">
            <rect x="-3.599" y="-1.491" width="2.981" height="2.981" style="fill:none;stroke:rgb(13,101,45);stroke-width:0.5px;"/>
        </g>
        <g transform="matrix(0,0.949361,0.949361,0,398.914,127.115)">
            <circle cx="2.108" cy="0" r="2.108" style="fill:none;stroke:rgb(23,78,166);stroke-width:0.5px;"/>
        </g>
        <g transform="matrix(0,0.949361,0.949361,0,398.914,134.787)">
            <circle cx="2.108" cy="0" r="2.108" style="fill:none;stroke:rgb(23,78,166);stroke-width:0.5px;"/>
        </g>
        <g transform="matrix(0,0.949361,0.949361,0,398.914,142.459)">
            <circle cx="2.108" cy="0" r="2.108" style="fill:none;stroke:rgb(23,78,166);stroke-width:0.5px;"/>
        </g>
        <g transform="matrix(0.949361,0,0,0.949361,363.234,130.312)">
            <path d="M0,17.437L4.122,17.437C8.937,17.437 12.84,13.534 12.84,8.719C12.84,3.904 8.937,0 4.122,0" style="fill:none;stroke:rgb(227,116,0);stroke-width:0.5px;"/>
        </g>
        <g transform="matrix(0.949361,0,0,0.949361,301.8,147.087)">
            <path d="M0,-8.982L-8.982,-8.982L-8.982,0" style="fill:none;stroke:rgb(165,14,14);stroke-width:0.5px;"/>
        </g>
        <g transform="matrix(0.949361,0,0,0.949361,305.483,134.243)">
            <path d="M0,-12.862L-12.862,-12.862L-12.862,0" style="fill:none;stroke:rgb(165,14,14);stroke-width:0.5px;"/>
        </g>
        <g transform="matrix(-0.949361,0,0,0.949361,217.342,129.471)">
            <path d="M-15.867,0L0,0" style="fill:none;stroke:rgb(227,116,0);stroke-width:0.5px;"/>
        </g>
        <g transform="matrix(-0.949361,0,0,0.949361,217.342,134.451)">
            <path d="M-15.867,0L0,0" style="fill:none;stroke:rgb(227,116,0);stroke-width:0.5px;"/>
        </g>
        <g transform="matrix(-0.949361,0,0,0.949361,217.342,139.431)">
            <path d="M-15.867,0L0,0" style="fill:none;stroke:rgb(227,116,0);stroke-width:0.5px;"/>
        </g>
        <g transform="matrix(-0.849144,0.424548,0.424548,0.849144,341.553,188.689)">
            <path d="M-3.784,-25.262C-8.091,-23.108 -9.836,-17.872 -7.683,-13.565L-3.784,-5.767C-1.631,-1.461 3.605,0.286 7.912,-1.868L13.761,-4.792" style="fill:none;stroke:rgb(32,33,36);stroke-width:0.46px;"/>
        </g>
        <g transform="matrix(0.949361,0,0,0.949361,277.795,190.462)">
            <path d="M0,-26.155C4.815,-26.155 8.718,-22.252 8.718,-17.437L8.718,-8.718C8.718,-3.904 4.815,0 0,0C-4.815,0 -8.718,-3.904 -8.718,-8.718L-8.718,-17.437C-8.718,-22.252 -4.815,-26.155 0,-26.155Z" style="fill:none;stroke:rgb(32,33,36);stroke-width:0.46px;"/>
        </g>
        <g transform="matrix(0,0.949361,0.949361,0,318.508,178.086)">
            <path d="M-13.036,-13.036L13.036,-13.036" style="fill:none;stroke:rgb(32,33,36);stroke-width:0.46px;"/>
        </g>
        <g transform="matrix(0.949361,0,0,0.949361,252.622,186.323)">
            <path d="M0,4.359L-12.969,4.359L-12.969,0" style="fill:none;stroke:rgb(32,33,36);stroke-width:0.46px;"/>
        </g>
        <g transform="matrix(0.6713,0.6713,0.6713,-0.6713,234.934,178.611)">
            <path d="M9.749,-1.74C7.365,0.643 7.365,4.508 9.749,6.892C12.813,9.957 12.813,14.924 9.749,17.988C6.685,21.052 1.718,21.052 -1.347,17.987L-5.663,13.671" style="fill:none;stroke:rgb(32,33,36);stroke-width:0.46px;"/>
        </g>
        <g transform="matrix(0.949361,0,0,0.949361,334.041,182.185)">
            <path d="M0,-17.437C-4.815,-17.437 -8.718,-13.534 -8.718,-8.719C-8.718,-3.904 -4.815,0 0,0C4.815,0 8.718,-3.904 8.718,-8.719" style="fill:none;stroke:rgb(32,33,36);stroke-width:0.46px;"/>
        </g>
    </g>
</svg>
